X:1
T:The Charity Seed
M:4/4
L:1/4
K:G
B,/2-B,/2| B, D D E/2F/2| G G GA/2-B/2| c A B G| E D D3/2 D/2| B, D DE/2-F/2|\
 G G GA/2-B/2| c A B G| E D D2| B d d B| A G G A| B d d B| A G G2|\
 B d d B| A G GA/2-B/2| c A B G| E/2E/2 D D3/2 D/2| B, D DE/2-F/2|\
 G G G-A/2-B/2| c3/4 c/4 A B G| E D D2| B, D DE/2-F/2| G G GA/2-B/2|\
 c A B G| E D D||
